client/src/data/flag-icon-css-master/flags/1x1/lr.svg

<svg viewBox="0 0 512 512" xmlns="http://www.w3.org/2000/svg" xmlns:xlink="http://www.w3.org/1999/xlink"><clipPath id="a"><path d="m0 0h512v512h-512z"/></clipPath><g clip-path="url(#a)" fill-rule="evenodd"><path d="m0 0h767.9v512h-767.9z" fill="#fff"/><path d="m0 0h232.7v232.8h-232.7z" fill="#006"/><path d="m0 464.9h767.9v47.1h-767.9z" fill="#c00"/><path d="m0 465.4h767.9v46.6h-767.9zm0-92.9h767.9v46.2h-767.9zm0-93.2h766v46.7h-766zm232.7-279.3h535.1v46.5h-535.1zm0 186h535.1v46.8h-535.1zm0-92.7h535.1v46.5h-535.1z" fill="#c00"/><path d="m166.3 177.5-50.7-31-50.4 31.3 18.7-50.9-50.3-31.4 62.3-.4 19.3-50.7 19.8 50.6h62.3l-50.1 31.7z" fill="#fff"/></g></svg>

<svg xmlns="http://www.w3.org/2000/svg" id="flag-icon-css-lr" viewBox="0 0 512 512">
  <defs>
    <clipPath id="lr-a">
      <path fill-opacity=".7" d="M0 0h512v512H0z"/>
    </clipPath>
  </defs>
  <g fill-rule="evenodd" clip-path="url(#lr-a)">
    <path fill="#fff" d="M0 0h767.9v512H0z"/>
    <path fill="#006" d="M0 0h232.7v232.8H0z"/>
    <path fill="#c00" d="M0 464.9h767.9V512H0z"/>
    <path fill="#c00" d="M0 465.4h767.9V512H0zm0-92.9h767.9v46.2H0zm0-93.2h766V326H0zM232.7 0h535.1v46.5H232.7zm0 186h535.1v46.8H232.7zm0-92.7h535.1v46.5H232.7z"/>
    <path fill="#fff" d="M166.3 177.5l-50.7-31-50.4 31.3 18.7-50.9-50.3-31.4 62.3-.4 19.3-50.7L135 95h62.3l-50.1 31.7 19.1 50.8z"/>
  </g>
</svg>
